images/icon/line.svg

<svg width="43" height="41" viewBox="0 0 43 41" fill="none" xmlns="http://www.w3.org/2000/svg">
<path d="M41.6737 17.6386C41.6737 8.58649 32.6255 1.24316 21.5 1.24316C10.3745 1.24316 1.32642 8.58649 1.32642 17.6386C1.32642 25.7209 8.48182 32.51 18.1762 33.8032C18.8225 33.9418 19.7458 34.2189 19.9305 34.8193C20.1151 35.3273 20.069 36.1124 19.9766 36.6666C19.9766 36.6666 19.7458 38.0984 19.6997 38.3755C19.6073 38.8835 19.2842 40.3614 21.4539 39.4839C23.6236 38.5602 33.0872 32.6486 37.2881 27.753C40.2888 24.5201 41.6737 21.241 41.6737 17.6386Z" stroke="white" stroke-width="1.83397" stroke-miterlimit="22.9256" stroke-linecap="round" stroke-linejoin="round"/>
<path d="M17.9234 14.2295H16.6776C16.4767 14.2295 16.3159 14.3903 16.3159 14.5511V22.19C16.3159 22.391 16.4767 22.5116 16.6776 22.5116H17.9234C18.1243 22.5116 18.2851 22.3508 18.2851 22.19V14.5511C18.2851 14.3903 18.1243 14.2295 17.9234 14.2295Z" fill="white"/>
<path d="M26.4028 14.2295H25.1972C24.9963 14.2295 24.8356 14.3903 24.8356 14.5511V19.0942L21.3393 14.3501C21.3393 14.3501 21.3393 14.3099 21.2992 14.3099C21.2992 14.3099 21.2992 14.3099 21.259 14.2697C21.259 14.2697 21.259 14.2697 21.2188 14.2697H19.973C19.7721 14.2697 19.6113 14.4305 19.6113 14.5913V22.2302C19.6113 22.4312 19.7721 22.5518 19.973 22.5518H21.2188C21.4197 22.5518 21.5805 22.391 21.5805 22.2302V17.6871L25.0767 22.4312C25.1169 22.4714 25.1169 22.5116 25.1571 22.5116C25.1571 22.5116 25.1571 22.5116 25.1972 22.5116C25.1972 22.5116 25.1972 22.5116 25.2374 22.5116C25.2776 22.5116 25.2776 22.5116 25.3178 22.5116H26.4028C26.6038 22.5116 26.7645 22.3508 26.7645 22.19V14.5511C26.7645 14.3903 26.6038 14.2295 26.4028 14.2295Z" fill="white"/>
<path d="M14.9496 20.6231H11.6142V14.5523C11.6142 14.3512 11.4534 14.1904 11.2525 14.1904H10.0067C9.80577 14.1904 9.64502 14.3512 9.64502 14.5523V22.1911C9.64502 22.2715 9.68521 22.3519 9.72539 22.4323C9.80577 22.4725 9.88614 22.5127 9.96651 22.5127H14.8693C15.0702 22.5127 15.1908 22.3519 15.1908 22.1509V20.9046C15.3113 20.7839 15.1506 20.6231 14.9496 20.6231Z" fill="white"/>
<path d="M33.1942 16.1194C33.3951 16.1194 33.5157 15.9586 33.5157 15.7576V14.5113C33.5157 14.3102 33.355 14.1494 33.1942 14.1494H28.2915C28.2111 14.1494 28.1307 14.1896 28.0503 14.2298C28.0102 14.3102 27.97 14.3906 27.97 14.4711V22.1099C27.97 22.1903 28.0102 22.2707 28.0503 22.3511C28.1307 22.3913 28.2111 22.4315 28.2915 22.4315H33.1942C33.3951 22.4315 33.5157 22.2707 33.5157 22.0697V20.8233C33.5157 20.6223 33.355 20.4615 33.1942 20.4615H29.8587V19.3358H33.1942C33.3951 19.3358 33.5157 19.175 33.5157 18.9739V17.7276C33.5157 17.5266 33.355 17.3658 33.1942 17.3658H29.8587V16.1194H33.1942Z" fill="white"/>
</svg>

<svg width="43" height="41" fill="none" xmlns="http://www.w3.org/2000/svg"><path d="M41.674 17.639c0-9.053-9.048-16.396-20.174-16.396S1.326 8.586 1.326 17.64c0 8.082 7.156 14.871 16.85 16.164.647.139 1.57.416 1.755 1.016.184.508.138 1.293.046 1.848l-.277 1.709c-.093.508-.416 1.985 1.754 1.108 2.17-.924 11.633-6.835 15.834-11.731 3-3.233 4.386-6.512 4.386-10.114z" stroke="#fff" stroke-width="1.834" stroke-miterlimit="22.926" stroke-linecap="round" stroke-linejoin="round"/><path d="M17.923 14.23h-1.245c-.201 0-.362.16-.362.321v7.639c0 .201.16.322.362.322h1.245c.201 0 .362-.161.362-.322v-7.639c0-.16-.16-.322-.362-.322zm8.48 0h-1.206c-.2 0-.361.16-.361.321v4.543l-3.497-4.744s0-.04-.04-.04l-.04-.04h-1.286c-.2 0-.362.16-.362.321v7.64c0 .2.161.32.362.32h1.246c.2 0 .361-.16.361-.32v-4.544l3.497 4.744c.04.04.04.08.08.08h1.246c.2 0 .362-.16.362-.321v-7.639c0-.16-.161-.322-.362-.322zM14.95 20.623h-3.336v-6.07a.36.36 0 00-.362-.363h-1.245a.36.36 0 00-.362.362v7.64c0 .08.04.16.08.24.08.04.161.08.242.08h4.902c.201 0 .322-.16.322-.361v-1.246c.12-.121-.04-.282-.241-.282zm18.244-4.503c.201 0 .322-.161.322-.362V14.51c0-.2-.161-.362-.322-.362h-4.903c-.08 0-.16.04-.24.08-.04.081-.081.162-.081.242v7.639c0 .08.04.16.08.241.08.04.161.08.241.08h4.903c.201 0 .322-.16.322-.361v-1.247c0-.2-.161-.361-.322-.361H29.86v-1.126h3.335c.201 0 .322-.161.322-.362v-1.246c0-.201-.161-.362-.322-.362H29.86v-1.247h3.335z" fill="#fff"/></svg>
